static/img/kroki/81fc5301cc9ff97af11f9ccf5cb71298.svg

<?xml version="1.0" encoding="us-ascii" standalone="no"?><svg xmlns="http://www.w3.org/2000/svg" xmlns:xlink="http://www.w3.org/1999/xlink" contentStyleType="text/css" height="645px" preserveAspectRatio="none" style="width:508px;height:645px;" version="1.1" viewBox="0 0 508 645" width="508px" zoomAndPan="magnify"><defs/><g><!--class aws_vpc_endpoint--><g id="elem_aws_vpc_endpoint"><rect codeLine="23" fill="#3D176E" height="39.7891" id="aws_vpc_endpoint" rx="2.5" ry="2.5" style="stroke:#000D19;stroke-width:0.5;" width="195" x="7" y="599.55"/><ellipse cx="22" cy="619.4445" fill="#ADD1B2" rx="11" ry="11" style="stroke:#181818;stroke-width:1.0;"/><path d="M24.9688,625.0852 Q24.3906,625.382 23.75,625.5227 Q23.1094,625.6789 22.4063,625.6789 Q19.9063,625.6789 18.5781,624.0383 Q17.2656,622.382 17.2656,619.257 Q17.2656,616.132 18.5781,614.4758 Q19.9063,612.8195 22.4063,612.8195 Q23.1094,612.8195 23.75,612.9758 Q24.4063,613.132 24.9688,613.4289 L24.9688,616.1477 Q24.3438,615.5695 23.75,615.3039 Q23.1563,615.0227 22.5313,615.0227 Q21.1875,615.0227 20.5,616.1008 Q19.8125,617.1633 19.8125,619.257 Q19.8125,621.3508 20.5,622.4289 Q21.1875,623.4914 22.5313,623.4914 Q23.1563,623.4914 23.75,623.2258 Q24.3438,622.9445 24.9688,622.3664 L24.9688,625.0852 Z " fill="#000000"/><text fill="#D9B8FF" font-family="Helvetica" font-size="17" lengthAdjust="spacing" textLength="153" x="41" y="625.3298">aws_vpc_endpoint</text></g><!--class digitalocean_cdn_endpoint--><g id="elem_digitalocean_cdn_endpoint"><rect codeLine="26" fill="#3D176E" height="39.7891" id="digitalocean_cdn_endpoint" rx="2.5" ry="2.5" style="stroke:#000D19;stroke-width:0.5;" width="264" x="237.5" y="599.55"/><ellipse cx="252.5" cy="619.4445" fill="#ADD1B2" rx="11" ry="11" style="stroke:#181818;stroke-width:1.0;"/><path d="M255.4688,625.0852 Q254.8906,625.382 254.25,625.5227 Q253.6094,625.6789 252.9063,625.6789 Q250.4063,625.6789 249.0781,624.0383 Q247.7656,622.382 247.7656,619.257 Q247.7656,616.132 249.0781,614.4758 Q250.4063,612.8195 252.9063,612.8195 Q253.6094,612.8195 254.25,612.9758 Q254.9063,613.132 255.4688,613.4289 L255.4688,616.1477 Q254.8438,615.5695 254.25,615.3039 Q253.6563,615.0227 253.0313,615.0227 Q251.6875,615.0227 251,616.1008 Q250.3125,617.1633 250.3125,619.257 Q250.3125,621.3508 251,622.4289 Q251.6875,623.4914 253.0313,623.4914 Q253.6563,623.4914 254.25,623.2258 Q254.8438,622.9445 255.4688,622.3664 L255.4688,625.0852 Z " fill="#000000"/><text fill="#D9B8FF" font-family="Helvetica" font-size="17" lengthAdjust="spacing" textLength="222" x="271.5" y="625.3298">digitalocean_cdn_endpoint</text></g><!--class endpoint--><g id="elem_endpoint"><rect codeLine="29" fill="#3D176E" height="39.7891" id="endpoint" rx="2.5" ry="2.5" style="stroke:#000D19;stroke-width:0.5;" width="116" x="178.5" y="438.76"/><ellipse cx="193.5" cy="458.6545" fill="#ADD1B2" rx="11" ry="11" style="stroke:#181818;stroke-width:1.0;"/><path d="M196.4688,464.2952 Q195.8906,464.592 195.25,464.7327 Q194.6094,464.8889 193.9063,464.8889 Q191.4063,464.8889 190.0781,463.2483 Q188.7656,461.592 188.7656,458.467 Q188.7656,455.342 190.0781,453.6858 Q191.4063,452.0295 193.9063,452.0295 Q194.6094,452.0295 195.25,452.1858 Q195.9063,452.342 196.4688,452.6389 L196.4688,455.3577 Q195.8438,454.7795 195.25,454.5139 Q194.6563,454.2327 194.0313,454.2327 Q192.6875,454.2327 192,455.3108 Q191.3125,456.3733 191.3125,458.467 Q191.3125,460.5608 192,461.6389 Q192.6875,462.7014 194.0313,462.7014 Q194.6563,462.7014 195.25,462.4358 Q195.8438,462.1545 196.4688,461.5764 L196.4688,464.2952 Z " fill="#000000"/><text fill="#D9B8FF" font-family="Helvetica" font-size="17" lengthAdjust="spacing" textLength="74" x="212.5" y="464.5398">endpoint</text></g><!--class resource--><g id="elem_resource"><rect codeLine="32" fill="#3D176E" height="310.7578" id="resource" rx="2.5" ry="2.5" style="stroke:#000D19;stroke-width:0.5;" width="227" x="123" y="7"/><ellipse cx="191.75" cy="26.8945" fill="#ADD1B2" rx="11" ry="11" style="stroke:#181818;stroke-width:1.0;"/><path d="M194.7188,32.5352 Q194.1406,32.832 193.5,32.9727 Q192.8594,33.1289 192.1563,33.1289 Q189.6563,33.1289 188.3281,31.4883 Q187.0156,29.832 187.0156,26.707 Q187.0156,23.582 188.3281,21.9258 Q189.6563,20.2695 192.1563,20.2695 Q192.8594,20.2695 193.5,20.4258 Q194.1563,20.582 194.7188,20.8789 L194.7188,23.5977 Q194.0938,23.0195 193.5,22.7539 Q192.9063,22.4727 192.2813,22.4727 Q190.9375,22.4727 190.25,23.5508 Q189.5625,24.6133 189.5625,26.707 Q189.5625,28.8008 190.25,29.8789 Q190.9375,30.9414 192.2813,30.9414 Q192.9063,30.9414 193.5,30.6758 Q194.0938,30.3945 194.7188,29.8164 L194.7188,32.5352 Z " fill="#000000"/><text fill="#D9B8FF" font-family="Helvetica" font-size="17" lengthAdjust="spacing" textLength="71" x="217.25" y="32.7798">resource</text><line style="stroke:#000D19;stroke-width:0.5;" x1="124" x2="349" y1="46.7891" y2="46.7891"/><text fill="#D9B8FF" font-family="sans-serif" font-size="14" font-weight="bold" lengthAdjust="spacing" textLength="29" x="134" y="68.7842">age</text><text fill="#D9B8FF" font-family="sans-serif" font-size="14" lengthAdjust="spacing" textLength="66" x="163" y="68.7842">: duration</text><text fill="#D9B8FF" font-family="sans-serif" font-size="14" font-weight="bold" lengthAdjust="spacing" textLength="43" x="134" y="95.0811">atime</text><text fill="#D9B8FF" font-family="sans-serif" font-size="14" lengthAdjust="spacing" textLength="70" x="177" y="95.0811">: datetime</text><text fill="#D9B8FF" font-family="sans-serif" font-size="14" font-weight="bold" lengthAdjust="spacing" textLength="43" x="134" y="121.3779">ctime</text><text fill="#D9B8FF" font-family="sans-serif" font-size="14" lengthAdjust="spacing" textLength="70" x="177" y="121.3779">: datetime</text><text fill="#D9B8FF" font-family="sans-serif" font-size="14" font-weight="bold" lengthAdjust="spacing" textLength="14" x="134" y="147.6748">id</text><text fill="#D9B8FF" font-family="sans-serif" font-size="14" lengthAdjust="spacing" textLength="48" x="148" y="147.6748">: string</text><text fill="#D9B8FF" font-family="sans-serif" font-size="14" font-weight="bold" lengthAdjust="spacing" textLength="33" x="134" y="173.9717">kind</text><text fill="#D9B8FF" font-family="sans-serif" font-size="14" lengthAdjust="spacing" textLength="48" x="167" y="173.9717">: string</text><text fill="#D9B8FF" font-family="sans-serif" font-size="14" font-weight="bold" lengthAdjust="spacing" textLength="90" x="134" y="200.2686">last_access</text><text fill="#D9B8FF" font-family="sans-serif" font-size="14" lengthAdjust="spacing" textLength="66" x="224" y="200.2686">: duration</text><text fill="#D9B8FF" font-family="sans-serif" font-size="14" font-weight="bold" lengthAdjust="spacing" textLength="90" x="134" y="226.5654">last_update</text><text fill="#D9B8FF" font-family="sans-serif" font-size="14" lengthAdjust="spacing" textLength="66" x="224" y="226.5654">: duration</text><text fill="#D9B8FF" font-family="sans-serif" font-size="14" font-weight="bold" lengthAdjust="spacing" textLength="48" x="134" y="252.8623">mtime</text><text fill="#D9B8FF" font-family="sans-serif" font-size="14" lengthAdjust="spacing" textLength="70" x="182" y="252.8623">: datetime</text><text fill="#D9B8FF" font-family="sans-serif" font-size="14" font-weight="bold" lengthAdjust="spacing" textLength="43" x="134" y="279.1592">name</text><text fill="#D9B8FF" font-family="sans-serif" font-size="14" lengthAdjust="spacing" textLength="48" x="177" y="279.1592">: string</text><text fill="#D9B8FF" font-family="sans-serif" font-size="14" font-weight="bold" lengthAdjust="spacing" textLength="34" x="134" y="305.4561">tags</text><text fill="#D9B8FF" font-family="sans-serif" font-size="14" lengthAdjust="spacing" textLength="171" x="168" y="305.4561">: dictionary[string, string]</text></g><!--reverse link endpoint to aws_vpc_endpoint--><g id="link_endpoint_aws_vpc_endpoint"><path codeLine="44" d="M209.0736,492.6521 C183.7036,523.1721 145.89,568.66 120.48,599.22 " fill="none" id="endpoint-backto-aws_vpc_endpoint" style="stroke:#FFAF37;stroke-width:2.0;"/><polygon fill="none" points="220.58,478.81,204.4596,488.8166,213.6877,496.4876,220.58,478.81" style="stroke:#FFAF37;stroke-width:2.0;"/></g><!--reverse link endpoint to digitalocean_cdn_endpoint--><g id="link_endpoint_digitalocean_cdn_endpoint"><path codeLine="45" d="M264.0997,492.6075 C289.6697,523.1275 327.8,568.66 353.4,599.22 " fill="none" id="endpoint-backto-digitalocean_cdn_endpoint" style="stroke:#FFAF37;stroke-width:2.0;"/><polygon fill="none" points="252.54,478.81,259.5006,496.4608,268.6989,488.7543,252.54,478.81" style="stroke:#FFAF37;stroke-width:2.0;"/></g><!--reverse link resource to endpoint--><g id="link_resource_endpoint"><path codeLine="46" d="M236.5,335.85 C236.5,384.14 236.5,413.37 236.5,438.68 " fill="none" id="resource-backto-endpoint" style="stroke:#FFAF37;stroke-width:2.0;"/><polygon fill="none" points="236.5,317.85,230.5,335.85,242.5,335.85,236.5,317.85" style="stroke:#FFAF37;stroke-width:2.0;"/></g><!--SRC=[XP9FQy904CNl-HGBtgI2Lbgrz6A5qbwarDvAaN5t4XUJtJ0xKUoVxzvDOqDCejwIztwPUM_8MYiKcAIy5macAoGNk8qsAH0aOafaTpCRMnATC8HmEAgRZzRmHM0E2OedZBV8MaATU5jhkJ7edBYkM0yWDn7PpAXYF1COvoqqNA5cCJWtPIQzoXWhOTHaDGx3EbaVsXcgmUWM6vWbXNH0-ls-6apgoCLLPtkNn49_eXXKZpQtZ8sOZHL_rDcKEL49sIZwxv_C-09AQHE9cuhsMcGYWtIaBzQWx2wdGuXTTOrZ9BIyJt7MQ8MJiGf7hV3pAJYG-Ua4xDnocyeb6fLQRLXy1S7FmLCwqWonbGXcAPLfXTeqGcSpakYrRXSYx7RlXCe8M5kJAwoJGWF6_DbhiaNJAXUS_oTDv5zzksF1x-8bIEd_-Dg6FoTByrar9sdPOw2Goi4CKJ5Ho_mpeFrxuLqTc0zVjIn-_zthzHg7hFidZncKroh0Kly5]--></g></svg>

<svg xmlns="http://www.w3.org/2000/svg" width="508" height="645" viewBox="0 0 508 645"><rect width="195" height="39.789" x="7" y="599.55" fill="#3D176E" rx="2.5" ry="2.5" style="stroke:#000d19;stroke-width:.5"/><circle cx="22" cy="619.444" r="11" fill="#ADD1B2" style="stroke:#181818;stroke-width:1"/><path d="M24.969 625.085q-.578.297-1.219.438-.64.156-1.344.156-2.5 0-3.828-1.64-1.312-1.657-1.312-4.782t1.312-4.781q1.328-1.657 3.828-1.657.703 0 1.344.157.656.156 1.219.453v2.719q-.625-.579-1.219-.844-.594-.281-1.219-.281-1.343 0-2.031 1.078-.687 1.062-.687 3.156t.687 3.172q.688 1.062 2.031 1.062.625 0 1.219-.265.594-.282 1.219-.86z"/><text x="41" y="625.33" fill="#D9B8FF" font-family="Helvetica" font-size="17" textLength="153">aws_vpc_endpoint</text><rect width="264" height="39.789" x="237.5" y="599.55" fill="#3D176E" rx="2.5" ry="2.5" style="stroke:#000d19;stroke-width:.5"/><circle cx="252.5" cy="619.444" r="11" fill="#ADD1B2" style="stroke:#181818;stroke-width:1"/><path d="M255.469 625.085q-.578.297-1.219.438-.64.156-1.344.156-2.5 0-3.828-1.64-1.312-1.657-1.312-4.782t1.312-4.781q1.328-1.657 3.828-1.657.703 0 1.344.157.656.156 1.219.453v2.719q-.625-.579-1.219-.844-.594-.281-1.219-.281-1.344 0-2.031 1.078-.687 1.062-.687 3.156t.687 3.172q.688 1.062 2.031 1.062.625 0 1.219-.265.594-.282 1.219-.86z"/><text x="271.5" y="625.33" fill="#D9B8FF" font-family="Helvetica" font-size="17" textLength="222">digitalocean_cdn_endpoint</text><rect width="116" height="39.789" x="178.5" y="438.76" fill="#3D176E" rx="2.5" ry="2.5" style="stroke:#000d19;stroke-width:.5"/><circle cx="193.5" cy="458.654" r="11" fill="#ADD1B2" style="stroke:#181818;stroke-width:1"/><path d="M196.469 464.295q-.578.297-1.219.438-.64.156-1.344.156-2.5 0-3.828-1.64-1.312-1.657-1.312-4.782t1.312-4.781q1.328-1.656 3.828-1.656.703 0 1.344.156.656.156 1.219.453v2.719q-.625-.579-1.219-.844-.594-.281-1.219-.281-1.344 0-2.031 1.078-.687 1.062-.687 3.156t.687 3.172q.688 1.062 2.031 1.062.625 0 1.219-.265.594-.281 1.219-.86z"/><text x="212.5" y="464.54" fill="#D9B8FF" font-family="Helvetica" font-size="17" textLength="74">endpoint</text><rect width="227" height="310.758" x="123" y="7" fill="#3D176E" rx="2.5" ry="2.5" style="stroke:#000d19;stroke-width:.5"/><circle cx="191.75" cy="26.895" r="11" fill="#ADD1B2" style="stroke:#181818;stroke-width:1"/><path d="M194.719 32.535q-.578.297-1.219.438-.64.156-1.344.156-2.5 0-3.828-1.64-1.312-1.657-1.312-4.782t1.312-4.781q1.328-1.656 3.828-1.656.703 0 1.344.156.656.156 1.219.453v2.719q-.625-.578-1.219-.844-.594-.281-1.219-.281-1.344 0-2.031 1.078-.687 1.062-.687 3.156t.687 3.172q.688 1.062 2.031 1.062.625 0 1.219-.265.594-.281 1.219-.86z"/><text x="217.25" y="32.78" fill="#D9B8FF" font-family="Helvetica" font-size="17" textLength="71">resource</text><path d="M124 46.789h225" style="stroke:#000d19;stroke-width:.5"/><text x="134" y="68.784" fill="#D9B8FF" font-family="sans-serif" font-size="14" font-weight="bold" textLength="29">age</text><text x="163" y="68.784" fill="#D9B8FF" font-family="sans-serif" font-size="14" textLength="66">: duration</text><text x="134" y="95.081" fill="#D9B8FF" font-family="sans-serif" font-size="14" font-weight="bold" textLength="43">atime</text><text x="177" y="95.081" fill="#D9B8FF" font-family="sans-serif" font-size="14" textLength="70">: datetime</text><text x="134" y="121.378" fill="#D9B8FF" font-family="sans-serif" font-size="14" font-weight="bold" textLength="43">ctime</text><text x="177" y="121.378" fill="#D9B8FF" font-family="sans-serif" font-size="14" textLength="70">: datetime</text><text x="134" y="147.675" fill="#D9B8FF" font-family="sans-serif" font-size="14" font-weight="bold" textLength="14">id</text><text x="148" y="147.675" fill="#D9B8FF" font-family="sans-serif" font-size="14" textLength="48">: string</text><text x="134" y="173.972" fill="#D9B8FF" font-family="sans-serif" font-size="14" font-weight="bold" textLength="33">kind</text><text x="167" y="173.972" fill="#D9B8FF" font-family="sans-serif" font-size="14" textLength="48">: string</text><text x="134" y="200.269" fill="#D9B8FF" font-family="sans-serif" font-size="14" font-weight="bold" textLength="90">last_access</text><text x="224" y="200.269" fill="#D9B8FF" font-family="sans-serif" font-size="14" textLength="66">: duration</text><text x="134" y="226.565" fill="#D9B8FF" font-family="sans-serif" font-size="14" font-weight="bold" textLength="90">last_update</text><text x="224" y="226.565" fill="#D9B8FF" font-family="sans-serif" font-size="14" textLength="66">: duration</text><text x="134" y="252.862" fill="#D9B8FF" font-family="sans-serif" font-size="14" font-weight="bold" textLength="48">mtime</text><text x="182" y="252.862" fill="#D9B8FF" font-family="sans-serif" font-size="14" textLength="70">: datetime</text><text x="134" y="279.159" fill="#D9B8FF" font-family="sans-serif" font-size="14" font-weight="bold" textLength="43">name</text><text x="177" y="279.159" fill="#D9B8FF" font-family="sans-serif" font-size="14" textLength="48">: string</text><text x="134" y="305.456" fill="#D9B8FF" font-family="sans-serif" font-size="14" font-weight="bold" textLength="34">tags</text><text x="168" y="305.456" fill="#D9B8FF" font-family="sans-serif" font-size="14" textLength="171">: dictionary[string, string]</text><g fill="none"><path d="M209.074 492.652c-25.37 30.52-63.184 76.008-88.594 106.568" style="stroke:#ffaf37;stroke-width:2"/><path d="m220.58 478.81-16.12 10.007 9.228 7.67z" style="stroke:#ffaf37;stroke-width:2"/></g><path fill="none" d="M264.1 492.608c25.57 30.52 63.7 76.052 89.3 106.612M252.54 478.81l6.96 17.65 9.199-7.706zM236.5 335.85v102.83m0-120.83-6 18h12z" style="stroke:#ffaf37;stroke-width:2"/></svg>
